X: 342
T: Sandy Milne
T: (Banchory)
C: Bert Murray
R: strathspey
B: Bert Murray's "Bon Accord Collection" 1999 p.34
%
Z: 2011 John Chambers <jc:trillian.mit.edu>
M: C
L: 1/16
K: A
ue2 |\
a3A AAA2 (F3A)E3A | c3AE3A (.G3.B) efg2 | a3A AAA2 (F3A)E3A | G3Be3c (.d3.B) efg |
a3A AAA2 (F3A)E3A | c3AE3A (.G3.B) efg2 | a3ec3A F3AE3A | G3Be3d (cA3) A2 ||
ue2 |\
c3AE3A F3AE3A | c3ea3c dB3 B3e | c3AE3A F3AE3A | G3Be3d | cA3 A3e |
c3AE3A F3AE3A | c3ea3c dB3 B3e | agf2 edc2 fed2 cBA2 | G3Be3d (cA3) A2 |]

%%sep 2 1 500

